X:1
T:Title
%%score { ( 1 3 ) | ( 2 4 ) }
L:1/8
M:6/8
K:F
V:1 treble nm="Grand Piano"
V:3 treble 
V:2 bass 
V:4 bass 
V:1
 z3 z2[Q:1/4=100] [DF] | [DF]2 [DG] [DG]2 [DF] | [_EF]2 [EG] [EG]2 [EF] | [FB]2 [Fd] [Fc]2 [FB] | %4
 [FA]3 .[_EG]2 [FG] | [_EG]2 [EA] [EA]2 [EG] | [_EG]2 [EA] [EA]2 [EG] | [_E^F]2 [EG] [=Ed]2 [Ec] | %8
 [Fc]3- [Fc] z [G^c] | [^Fd]2 [FA] [GB]2 [Gd] | [Gc]2 [EG] A2 A | G2 A G2 A | G3- G z [EG] | %13
 A2 A B2 B |[M:7/8] c2 f e3 d |[M:3/4] [Fc]2 [Fd] [EA]2 [EG] |[M:11/16] F/-F/-F/-F/-F/-F-<F z | %17
[M:1/8] F |[M:3/4] [Dd]2 [Dd]c z [A,_EG] | [_EG]2 [DF] [DF]2 [B,D] | [DF]2 D C2 _E | D4 z F | %22
 [Dd]2 [Dd]c z [A,_EG] | [B,_EG]2 [B,DF] [B,DF]2 [DFG] | [CFA]2 [Fd] [Ec]2 E | F4 z F | %26
 [Ff]2 [Ff] [F_e]2 [Fd] |[M:7/8] [G_e]2 G [GB]3 G |[M:3/4] F2 d d2 c | [DB]6 |] %30
V:2
 z3 z2 [B,,B,] | [B,,B,]2 [B,,B,] [B,,B,]2 [B,,B,] | [C,A,]2 [C,A,] [C,A,]2 [C,A,] | %3
 [D,B,]2 [D,B,] [D,B,]2 [D,B,] | [_E,B,]3- [E,B,] z [D,=B,] | [C,C]2 [C,C] [C,C]2 [C,C] | %6
 [C,C]2 [C,C] [C,C]2 [C,C] | [C,C]2 [C,C] [C,B,]2 [C,B,] | [F,A,]3- [F,A,] z [_E,A,] | %9
 [D,A,]2 [D,D] [G,D]2 [F,B,] | [E,C]2 [C,C][K:treble] [F,CF]2 [F,CF] | %11
 [B,DF]2 [B,DF] [=B,DF]2 [B,DF] | [CE]3- [CE] z[K:bass] [C,C] | [F,CF]2 [F,CF] [G,CE]2 [CE] | %14
[M:7/8][K:treble] [A,CF]2 [A,CF] [B,F]3 [G,B,F] |[M:3/4][K:bass] [C,A,]2 [C,A,] [C,C]2 [C,B,] | %16
[M:11/16] [A,C]-<[A,C] z/ z/ z/ z/ z/ z |[M:1/8] F, | %18
[M:3/4] [B,,F,]2 .[B,,F,]2[K:treble] B[K:bass]B,, | [B,,B,]2 [B,,B,] [B,,B,]2 [B,,F,] | %20
 [B,,B,]2 [D,F,B,] [F,A,]2 [F,C] | [B,,F,B,]4 z F, | [B,,F,]2 .[B,,^F,]2[K:treble] B[K:bass]B,, | %23
 B,,2 B,, B,,2 B,, | C,2 [C,A,] [C,G,]2 [C,B,C] | [F,A,C]4 z [_E,A,] | %26
 [D,B,]2 [D,B,] [G,=B,]2 [G,B,] |[M:7/8] [C,C]2 [_E,C] [=E,^C]3 [E,B,C] | %28
[M:3/4] [F,B,D]2 [F,B,F] [F,A,F]2 [F,A,_E] | [B,,B,]6 |] %30
V:3
 x6 | x6 | x6 | x6 | x6 | x6 | x6 | x6 | x6 | x6 | x6 | x6 | x6 | x6 |[M:7/8] x7 |[M:3/4] x6 | %16
[M:11/16] z/ z/ z D_E3/2 z |[M:1/8] x |[M:3/4] z2 z ._E3 | x6 | x6 | x6 | z2 z ._E3 | x6 | x6 | %25
 x6 | x6 |[M:7/8] x7 |[M:3/4] x6 | x6 |] %30
V:4
 x6 | x6 | x6 | x6 | x6 | x6 | x6 | x6 | x6 | x6 | x3[K:treble] x3 | x6 | x5[K:bass] x | x6 | %14
[M:7/8][K:treble] x7 |[M:3/4][K:bass] x6 |[M:11/16] F,-<F,-[F,-B,][F,C]3/2 z |[M:1/8] x | %18
[M:3/4] z2 z .[B,,G,]3[K:treble][K:bass] | x6 | x6 | x6 | z2 z .[B,,G,]3[K:treble][K:bass] | x6 | %24
 x6 | x6 | x6 |[M:7/8] x7 |[M:3/4] x6 | x6 |] %30

